X:107
T:Virginie Les Larm' Aux Yeux
M:3/4
L:1/8
N:Mouvt de marche
N:La Bourre 4th edition 1929, page 103
Z:Steve Mansfield www.lesession.co.uk June 2012
K:G
G B | d2 e2 d B ||[M:2/4] G G A B | 
[M:3/4] c2 A2 G F | G4 d d ||[M:2/4] B G d d | 
B G G B ||[M:3/4] d2 e2 d ^c | d4 d d | 
[M:2/4] B G d d | B G A B ||[M:3/4] c2 A2 G F | !fermata! G6 |]
<end>
<start>
